X: 3337
T: Fangedans
B:[[Notböcker/Melodier til gamle danske Almuedanse for Violin solo]]
O:Danmark
Z:Søren Bak Vestergaard
M: 3/4
L: 1/8
K: D
(Ad)|fdAdfd|efgfed|ceAcec|\
dfbage|fdAdfd|efgfed|ceAcec|d2 z2:|\
|:(fg)|afdfaf|gabagf|gecege|fgagfe|\
fdAdfd|efgfed|ceAcec|d2 z2:|
(:musicend:)
(:music:)
